X:9
T:Bronsam Hornpipe 
C:from Edward Winder's ms2
N:"A very pretty tune" Written originally in 4/4
M:3/2
L:1/8
K:A
A3f e3c dcBA|GABc B2E2G2FE|A3f e3c dcBA|E2A2A2E2C2B,A,:|
|:agae fedc dcBA|agae fedc BcdB|agae fedc dcBA|E2A2A2E2C2B,A,:|
|:eccc fddd ecBA|GABc B2E2G2FE|eccc fddd ecBA|E2A2A2E2C2B,A,:|
%%vskip 1cm
